Newaita-dark/actions/24/code-context.svg

<?xml version="1.0" encoding="UTF-8"?>
<svg xmlns="http://www.w3.org/2000/svg" xmlns:xlink="http://www.w3.org/1999/xlink" width="24pt" height="24pt" viewBox="0 0 24 24" version="1.1">
<g id="surface1">
<path style=" stroke:none;fill-rule:nonzero;fill:rgb(47.058824%,56.470591%,61.176473%);fill-opacity:1;" d="M 7.9375 2.171875 C 5.738281 2.171875 3.96875 3.941406 3.96875 6.140625 L 3.96875 10.359375 C 3.96875 11.101562 2.730469 11.101562 1.984375 11.101562 C 1.710938 11.101562 1.488281 11.546875 1.488281 12.09375 C 1.488281 12.644531 1.710938 13.085938 1.984375 13.085938 C 2.730469 13.085938 3.96875 13.085938 3.96875 13.832031 L 3.96875 18.046875 C 3.96875 20.246094 5.738281 22.019531 7.9375 22.019531 L 8.929688 22.019531 C 9.207031 22.019531 9.425781 21.574219 9.425781 21.027344 C 9.425781 20.476562 9.207031 20.03125 8.929688 20.03125 L 7.9375 20.03125 C 6.839844 20.03125 5.953125 19.148438 5.953125 18.046875 L 5.953125 13.832031 C 5.953125 12.964844 5.828125 12.09375 4.960938 12.09375 C 5.828125 12.09375 5.953125 11.226562 5.953125 10.359375 L 5.953125 6.140625 C 5.953125 5.042969 6.839844 4.15625 7.9375 4.15625 L 8.929688 4.15625 C 9.207031 4.15625 9.425781 3.714844 9.425781 3.164062 C 9.425781 2.613281 9.207031 2.171875 8.929688 2.171875 Z M 15.875 2.171875 C 15.601562 2.171875 15.378906 2.613281 15.378906 3.164062 C 15.378906 3.714844 15.601562 4.15625 15.875 4.15625 L 16.867188 4.15625 C 17.96875 4.15625 18.851562 5.042969 18.851562 6.140625 L 18.851562 10.359375 C 18.863281 11.117188 18.972656 12.082031 19.84375 12.09375 C 18.921875 12.160156 18.855469 13.105469 18.851562 13.832031 L 18.851562 18.046875 C 18.851562 19.148438 17.96875 20.03125 16.867188 20.03125 L 15.878906 20.03125 C 15.878906 20.03125 15.875 20.03125 15.875 20.03125 C 15.601562 20.03125 15.378906 20.476562 15.378906 21.027344 C 15.378906 21.574219 15.601562 22.019531 15.875 22.019531 L 16.867188 22.019531 C 19.066406 22.019531 20.839844 20.246094 20.839844 18.046875 L 20.839844 13.832031 C 20.839844 13.085938 22.078125 13.085938 22.824219 13.085938 C 23.097656 13.085938 23.320312 12.644531 23.320312 12.09375 C 23.320312 11.546875 23.097656 11.101562 22.824219 11.101562 C 22.078125 11.101562 20.839844 11.101562 20.839844 10.359375 L 20.839844 6.140625 C 20.839844 3.941406 19.066406 2.171875 16.867188 2.171875 Z M 15.875 2.171875 "/>
</g>
</svg>

<svg xmlns="http://www.w3.org/2000/svg" width="32" height="32" viewBox="0 0 24 24"><path d="M7.938 2.172a3.96 3.96 0 0 0-3.97 3.969v4.218c0 .743-1.238.743-1.984.743-.273 0-.496.445-.496.992 0 .55.223.992.496.992.746 0 1.985 0 1.985.746v4.215c0 2.2 1.77 3.973 3.969 3.973h.992c.277 0 .496-.446.496-.993 0-.55-.219-.996-.496-.996h-.992a1.98 1.98 0 0 1-1.985-1.984v-4.215c0-.867-.125-1.738-.992-1.738.867 0 .992-.867.992-1.735V6.141c0-1.098.887-1.985 1.984-1.985h.993c.277 0 .496-.441.496-.992 0-.55-.219-.992-.496-.992zm7.937 0c-.273 0-.496.441-.496.992 0 .55.223.992.496.992h.992a1.98 1.98 0 0 1 1.985 1.985v4.218c.011.758.12 1.723.992 1.735-.922.066-.989 1.011-.992 1.738v4.215a1.977 1.977 0 0 1-1.985 1.984h-.988-.004c-.273 0-.496.446-.496.996 0 .547.223.993.496.993h.992c2.2 0 3.973-1.774 3.973-3.973v-4.215c0-.746 1.238-.746 1.984-.746.274 0 .496-.441.496-.992 0-.547-.222-.992-.496-.992-.746 0-1.984 0-1.984-.743V6.141c0-2.2-1.774-3.97-3.973-3.97zm0 0" fill="#78909c"/></svg>
